src/icons/main-pipelines.svg

<svg enable-background="new 0 0 14 13" viewBox="0 0 14 13" xmlns="http://www.w3.org/2000/svg"><g fill="#4d5969"><path d="m4.3 4.6c-.2 0-.4 0-.4-.4v-4.2h-3.1v4.2c0 1.2.9 3.2 3.5 3.2h3.1c0-.9 0-1.9 0-2.8z"/><path d="m0 0h4.9v1.4h-4.9zm6 4.1h1.4v4.1h-1.4z"/><path d="m9.7 4.9h-3.1v2.8h3.1c.4 0 .4.2.4.4v4.2h3.1v-4.2c0-2.3-2.2-3.2-3.5-3.2z"/><path d="m9.1 11h4.9v1.4h-4.9zm-2.5-6.9h1.4v4.1h-1.4z"/></g></svg>

<?xml version="1.0" encoding="utf-8"?>
<!-- Generator: Adobe Illustrator 20.1.0, SVG Export Plug-In . SVG Version: 6.00 Build 0)  -->
<svg version="1.1" id="Layer_1" xmlns="http://www.w3.org/2000/svg" xmlns:xlink="http://www.w3.org/1999/xlink" x="0px" y="0px"
	 viewBox="0 0 14 13" style="enable-background:new 0 0 14 13;" xml:space="preserve">
<style type="text/css">
	.st0{fill:#4D5969;}
</style>
<title>HDL/Icon/Standard/pipelines</title>
<desc>Created with Sketch.</desc>
<g id="Colors">
	<g id="Main-Icons" transform="translate(-1122.000000, -644.000000)">
		<g id="Pipelines" transform="translate(1100.000000, 627.000000)">
			<g id="HDL_x2F_Icon_x2F_Standard_x2F_pipelines" transform="translate(22.000000, 17.000000)">
				<g id="icons8-piping" transform="translate(0.000000, -0.000000)">
					<path id="Path" class="st0" d="M4.3,4.6c-0.2,0-0.4,0-0.4-0.4V0H0.8v4.2c0,1.2,0.9,3.2,3.5,3.2h3.1c0-0.9,0-1.9,0-2.8H4.3z"/>
					<path id="Shape" class="st0" d="M0,0h4.9v1.4H0V0z M6,4.1h1.4v4.1H6V4.1z"/>
					<path id="Path_1_" class="st0" d="M9.7,4.9H6.6c0,1,0,1.9,0,2.8h3.1c0.4,0,0.4,0.2,0.4,0.4v4.2h3.1V8.1
						C13.2,5.8,11,4.9,9.7,4.9z"/>
					<path id="Shape_1_" class="st0" d="M9.1,11H14v1.4H9.1V11z M6.6,4.1H8v4.1H6.6V4.1z"/>
				</g>
			</g>
		</g>
	</g>
</g>
</svg>
